symbols/web/scoreboard/materialsymbolsoutlined/scoreboard_wght700grad200_48px.svg

<svg xmlns="http://www.w3.org/2000/svg" height="48" width="48"><path d="M30.95 30.2q-.8 0-1.35-.55t-.55-1.3V20.2q0-.75.55-1.3t1.35-.55h5q.75 0 1.3.55t.55 1.3v8.15q0 .75-.575 1.3t-1.275.55Zm.85-2.75h3.3v-6.3h-3.3ZM10.25 30.2v-5.25q0-.75.55-1.3t1.3-.55h3.95v-2h-5.8v-2.75h6.8q.8 0 1.35.55t.55 1.3v3.4q0 .8-.55 1.325-.55.525-1.35.525H13.1v2h5.85v2.75ZM22 22.4v-3.75h4.05v3.75Zm0 7.5v-3.75h4.05v3.75ZM6.6 42q-1.9 0-3.25-1.35T2 37.4V11.15q0-1.9 1.35-3.25T6.6 6.55h6.2V2.1h3.95v4.45H31.3V2.1h4v4.45h6.1q1.9 0 3.25 1.35T46 11.15V37.4q0 1.9-1.35 3.25T41.4 42Zm-.1-4.5H22v-3.8h4.05v3.8H41.5V11.1H26.05v3.8H22v-3.8H6.5v26.4Zm0 0V11.1v26.4Z"/></svg>

<svg xmlns="http://www.w3.org/2000/svg" height="48" width="48"><path d="M30.95 30.2Q30.15 30.2 29.6 29.65Q29.05 29.1 29.05 28.35V20.2Q29.05 19.45 29.6 18.9Q30.15 18.35 30.95 18.35H35.95Q36.7 18.35 37.25 18.9Q37.8 19.45 37.8 20.2V28.35Q37.8 29.1 37.225 29.65Q36.65 30.2 35.95 30.2ZM31.8 27.45H35.1V21.15H31.8ZM10.25 30.2V24.95Q10.25 24.2 10.8 23.65Q11.35 23.1 12.1 23.1H16.05V21.1H10.25V18.35H17.05Q17.85 18.35 18.4 18.9Q18.95 19.45 18.95 20.2V23.6Q18.95 24.4 18.4 24.925Q17.85 25.45 17.05 25.45H13.1V27.45H18.95V30.2ZM22 22.4V18.65H26.05V22.4ZM22 29.9V26.15H26.05V29.9ZM6.6 42Q4.7 42 3.35 40.65Q2 39.3 2 37.4V11.15Q2 9.25 3.35 7.9Q4.7 6.55 6.6 6.55H12.8V2.1H16.75V6.55H31.3V2.1H35.3V6.55H41.4Q43.3 6.55 44.65 7.9Q46 9.25 46 11.15V37.4Q46 39.3 44.65 40.65Q43.3 42 41.4 42ZM6.5 37.5H22V33.7H26.05V37.5H41.5Q41.5 37.5 41.5 37.5Q41.5 37.5 41.5 37.5V11.1Q41.5 11.1 41.5 11.1Q41.5 11.1 41.5 11.1H26.05V14.9H22V11.1H6.5Q6.5 11.1 6.5 11.1Q6.5 11.1 6.5 11.1V37.5Q6.5 37.5 6.5 37.5Q6.5 37.5 6.5 37.5ZM6.5 37.5Q6.5 37.5 6.5 37.5Q6.5 37.5 6.5 37.5V11.1Q6.5 11.1 6.5 11.1Q6.5 11.1 6.5 11.1Q6.5 11.1 6.5 11.1Q6.5 11.1 6.5 11.1V37.5Q6.5 37.5 6.5 37.5Q6.5 37.5 6.5 37.5Z"/></svg>
